flaticon/symbols/vinegar.svg

<svg xmlns="http://www.w3.org/2000/svg" width="32" height="32" viewBox="0 0 24 24">
    <path d="M8.398438 13.601562C7.519531 13.601562 6.800781 14.316406 6.800781 15.199219 6.800781 16.082031 7.519531 16.800781 8.398438 16.800781 9.28125 16.800781 10 16.082031 10 15.199219 10 14.316406 9.28125 13.601562 8.398438 13.601562zM8.398438 16C7.957031 16 7.601562 15.640625 7.601562 15.199219 7.601562 14.757812 7.957031 14.398438 8.398438 14.398438 8.839844 14.398438 9.199219 14.757812 9.199219 15.199219 9.199219 15.640625 8.839844 16 8.398438 16zM8.398438 9.601562C9.28125 9.601562 10 8.882812 10 8 10 7.117188 9.28125 6.398438 8.398438 6.398438 7.519531 6.398438 6.800781 7.117188 6.800781 8 6.800781 8.882812 7.519531 9.601562 8.398438 9.601562zM8.398438 7.199219C8.839844 7.199219 9.199219 7.558594 9.199219 8 9.199219 8.441406 8.839844 8.800781 8.398438 8.800781 7.957031 8.800781 7.601562 8.441406 7.601562 8 7.601562 7.558594 7.957031 7.199219 8.398438 7.199219zM15.601562 9.601562C16.480469 9.601562 17.199219 8.882812 17.199219 8 17.199219 7.117188 16.480469 6.398438 15.601562 6.398438 14.71875 6.398438 14 7.117188 14 8 14 8.882812 14.71875 9.601562 15.601562 9.601562zM15.601562 7.199219C16.042969 7.199219 16.398438 7.558594 16.398438 8 16.398438 8.441406 16.042969 8.800781 15.601562 8.800781 15.160156 8.800781 14.800781 8.441406 14.800781 8 14.800781 7.558594 15.160156 7.199219 15.601562 7.199219zM15.601562 13.601562C14.71875 13.601562 14 14.316406 14 15.199219 14 16.082031 14.71875 16.800781 15.601562 16.800781 16.480469 16.800781 17.199219 16.082031 17.199219 15.199219 17.199219 14.316406 16.480469 13.601562 15.601562 13.601562zM15.601562 16C15.160156 16 14.800781 15.640625 14.800781 15.199219 14.800781 14.757812 15.160156 14.398438 15.601562 14.398438 16.042969 14.398438 16.398438 14.757812 16.398438 15.199219 16.398438 15.640625 16.042969 16 15.601562 16zM15.601562 16"/>
    <path d="M 23.984375 11.402344 C 23.890625 10.832031 23.363281 10.398438 22.757812 10.398438 L 13.199219 10.398438 L 13.199219 1.242188 C 13.199219 0.636719 12.769531 0.109375 12.199219 0.015625 C 11.847656 -0.0429688 11.492188 0.0585938 11.222656 0.285156 C 10.953125 0.515625 10.800781 0.847656 10.800781 1.199219 L 10.800781 10.398438 L 1.242188 10.398438 C 0.636719 10.398438 0.109375 10.832031 0.015625 11.402344 C -0.0390625 11.753906 0.0585938 12.109375 0.285156 12.375 C 0.515625 12.644531 0.847656 12.800781 1.199219 12.800781 L 10.800781 12.800781 L 10.800781 22.757812 C 10.800781 23.363281 11.230469 23.890625 11.800781 23.984375 C 11.867188 23.996094 11.933594 24 11.996094 24 C 12.28125 24 12.558594 23.902344 12.777344 23.714844 C 13.046875 23.484375 13.199219 23.152344 13.199219 22.800781 L 13.199219 12.800781 L 22.800781 12.800781 C 23.152344 12.800781 23.484375 12.644531 23.714844 12.375 C 23.941406 12.109375 24.039062 11.753906 23.984375 11.402344 Z M 23.105469 11.859375 C 23.027344 11.949219 22.917969 12 22.800781 12 L 13.109375 12 C 12.71875 12 12.398438 12.316406 12.398438 12.707031 L 12.398438 22.800781 C 12.398438 22.917969 12.347656 23.027344 12.257812 23.105469 C 12.167969 23.183594 12.050781 23.214844 11.929688 23.195312 C 11.746094 23.164062 11.601562 22.972656 11.601562 22.757812 L 11.601562 12.707031 C 11.601562 12.316406 11.28125 12 10.890625 12 L 1.199219 12 C 1.082031 12 0.972656 11.949219 0.894531 11.859375 C 0.816406 11.769531 0.785156 11.652344 0.804688 11.53125 C 0.835938 11.34375 1.027344 11.199219 1.242188 11.199219 L 10.890625 11.199219 C 11.28125 11.199219 11.601562 10.882812 11.601562 10.492188 L 11.601562 1.199219 C 11.601562 1.082031 11.652344 0.972656 11.742188 0.894531 C 11.832031 0.816406 11.949219 0.785156 12.070312 0.804688 C 12.253906 0.835938 12.398438 1.027344 12.398438 1.242188 L 12.398438 10.492188 C 12.398438 10.882812 12.71875 11.199219 13.109375 11.199219 L 22.757812 11.199219 C 22.972656 11.199219 23.164062 11.34375 23.195312 11.53125 C 23.214844 11.652344 23.183594 11.769531 23.105469 11.859375 Z M 23.105469 11.859375"/>
</svg>

<svg xmlns="http://www.w3.org/2000/svg" width="32" height="32" viewBox="0 0 24 24">
    <path d="M8.398 13.602a1.6 1.6 0 1 0 .004 3.199 1.6 1.6 0 0 0-.004-3.2zm0 2.398a.799.799 0 0 1-.796-.8.799.799 0 1 1 1.597 0c0 .44-.36.8-.8.8zm0 0M8.398 9.602C9.281 9.602 10 8.882 10 8c0-.883-.719-1.602-1.602-1.602a1.603 1.603 0 0 0 0 3.203zm0-2.403a.802.802 0 0 1 0 1.602A.799.799 0 0 1 7.602 8c0-.441.355-.8.796-.8zm0 0M15.602 9.602a1.603 1.603 0 0 0 0-3.203C14.719 6.398 14 7.116 14 8s.719 1.602 1.602 1.602zm0-2.403c.441 0 .796.36.796.801a.799.799 0 1 1-1.597 0c0-.441.36-.8.8-.8zm0 0M15.602 13.602A1.6 1.6 0 0 0 14 15.199c0 .883.719 1.602 1.602 1.602a1.6 1.6 0 1 0 0-3.2zm0 2.398a.802.802 0 0 1 0-1.602c.441 0 .796.36.796.801 0 .442-.355.801-.796.801zm0 0"/>
    <path d="M23.984 11.402c-.093-.57-.62-1.004-1.226-1.004h-9.559V1.242c0-.605-.43-1.133-1-1.226A1.199 1.199 0 0 0 10.801 1.2v9.198H1.242c-.605 0-1.133.434-1.226 1.004A1.203 1.203 0 0 0 1.2 12.8h9.6v9.958c0 .605.43 1.133 1 1.226a1.196 1.196 0 0 0 1.398-1.184l.001-10h9.602a1.203 1.203 0 0 0 1.183-1.398zm-.879.457a.402.402 0 0 1-.304.141h-9.692a.71.71 0 0 0-.71.707v10.094a.402.402 0 0 1-.47.394c-.183-.03-.327-.222-.327-.437V12.707A.71.71 0 0 0 10.89 12H1.199a.402.402 0 0 1-.394-.469c.03-.187.222-.332.437-.332h9.649a.71.71 0 0 0 .71-.707V1.2a.402.402 0 0 1 .47-.394c.183.03.327.222.327.437v9.25c0 .39.32.707.711.707h9.649c.215 0 .406.145.437.332a.396.396 0 0 1-.09.328zm0 0"/>
</svg>
